raw/symbols/alpaca.svg

<svg width="42" height="42" viewBox="0 0 42 42" fill="none" xmlns="http://www.w3.org/2000/svg">
<circle cx="21" cy="21" r="21" fill="#31C77F"/>
<path d="M37.3332 20.8853C37.3332 29.8422 30.0205 37.1032 20.9998 37.1032C11.9792 37.1032 4.6665 29.8422 4.6665 20.8853C4.6665 11.9283 11.9792 4.66724 20.9998 4.66724C30.0205 4.66724 37.3332 11.9283 37.3332 20.8853Z" stroke="#F3F3F3" stroke-width="1.20988"/>
<path fill-rule="evenodd" clip-rule="evenodd" d="M17.4997 37.1025L14.0612 35.9644C14.1895 35.6571 14.3461 35.2836 14.4507 35.0397L14.6716 35.1931C14.8885 35.3119 15.2029 35.4307 15.3674 35.4752C16.0633 35.6607 16.7666 35.7794 17.4849 35.8091C17.7333 35.8203 17.9859 35.7935 18.2362 35.7669H18.2363H18.2363L18.2366 35.7669L18.2368 35.7669C18.3182 35.7582 18.3994 35.7496 18.4801 35.7424C18.5904 35.7321 18.701 35.722 18.8116 35.7119C19.3389 35.6638 19.8686 35.6155 20.3881 35.5419C20.5416 35.5181 20.6889 35.537 20.834 35.5556C20.9153 35.5661 20.9959 35.5764 21.0765 35.5791C21.0975 35.5798 21.1187 35.5808 21.1398 35.5817L21.1402 35.5817H21.1402C21.322 35.5897 21.5053 35.5978 21.6527 35.5048C21.9387 35.3333 22.2543 35.3084 22.5627 35.2841L22.5629 35.2841L22.5632 35.2841C22.6015 35.281 22.6397 35.278 22.6778 35.2748C23.4409 35.208 24.1892 35.0373 24.915 34.8072L25.0528 34.7645C25.7475 34.5492 26.4405 34.3343 27.1073 34.028C27.2977 33.9406 27.4817 33.8467 27.6559 33.7423C27.8455 34.1673 28.224 34.9928 28.5545 35.5737L26.833 36.5233L22.1664 37.3342L17.4997 37.1025ZM25.9156 27.015C25.8554 26.585 25.8358 26.1481 25.8879 25.7112C25.9777 24.9395 25.9329 24.1751 25.7832 23.4107C25.641 22.7205 25.6111 22.0303 25.7532 21.3328C25.7682 21.2289 25.7832 21.1102 25.7608 21.0063C25.6559 20.4571 25.6111 19.9005 25.6261 19.3513C25.5737 19.3217 25.5662 19.3365 25.5512 19.3662C25.2669 19.8263 24.8105 19.908 24.3241 19.8337C23.8377 19.7669 23.531 19.4627 23.4188 18.9877C23.389 18.8697 23.3372 18.8397 23.2485 18.7883L23.2467 18.7873C23.112 18.7057 23.127 18.5796 23.2691 18.5127C23.3138 18.4905 23.3586 18.4808 23.4034 18.4711C23.4185 18.4678 23.4336 18.4646 23.4486 18.4608C23.7912 18.3712 24.1319 18.2816 24.4726 18.192C24.8091 18.1035 25.1455 18.015 25.4838 17.9265C25.7608 17.8523 25.7608 17.8523 25.7308 17.5851C25.6635 17.0657 25.5512 16.5461 25.3866 16.0489C25.1247 15.2623 24.6982 14.5647 24.1669 13.9265C24.1329 13.8843 24.0913 13.8463 24.0496 13.8082C23.9812 13.7458 23.9123 13.6829 23.8751 13.5999C23.8165 13.4692 23.895 13.3985 23.9732 13.328C24.0148 13.2905 24.0564 13.2531 24.0772 13.2067C24.3482 12.6323 24.7816 12.1787 25.2145 11.7257C25.3073 11.6285 25.4002 11.5313 25.4914 11.433C25.641 11.2697 25.8131 11.1213 25.9777 10.9803C26.1124 10.869 26.2621 10.7873 26.4491 10.8764C26.6436 10.9729 26.681 11.1436 26.6886 11.3365C26.696 11.6482 26.6137 11.945 26.5165 12.2345C26.2997 12.8592 25.991 13.4292 25.6791 14.005L25.6791 14.005L25.6791 14.005L25.5811 14.1862L25.5761 14.1956C25.4467 14.4384 25.3794 14.5647 25.3838 14.6885C25.3884 14.8226 25.4772 14.9538 25.6622 15.2271L25.6709 15.24C25.7209 15.1573 25.771 15.0835 25.819 15.0126L25.819 15.0126L25.819 15.0125L25.8191 15.0125L25.8191 15.0125C25.8788 14.9243 25.9354 14.8407 25.9852 14.7503C26.3892 14.0082 26.7709 13.2512 27.0477 12.4497C27.3245 11.6482 27.534 10.8319 27.4816 9.97102C27.4517 9.51832 27.2646 9.38474 26.8232 9.52574C26.5539 9.60738 26.3518 9.78549 26.1498 9.97102C25.5057 10.5679 24.9324 11.2277 24.3589 11.8877C24.1196 12.1631 23.8802 12.4385 23.6357 12.7094C23.5683 12.7836 23.5085 12.8653 23.4861 12.9617C23.3963 13.3031 23.2841 13.3476 22.9773 13.1621L22.9472 13.1448C22.816 13.0692 22.6893 12.9962 22.5433 12.9617C21.5331 12.7539 20.523 12.6797 19.4979 12.8653C19.1239 12.9246 18.7722 12.9989 18.458 13.2141C18.413 13.2437 18.3681 13.266 18.3233 13.2808C18.1362 13.3551 17.994 13.2957 17.9791 13.0953C17.9641 12.9172 17.8668 12.8059 17.7621 12.6871C17.5974 12.4942 17.4253 12.3013 17.2532 12.1083C17.0965 11.9347 16.9419 11.7598 16.7875 11.585L16.7875 11.585L16.7875 11.585L16.7875 11.585L16.7874 11.585L16.7874 11.585C16.3082 11.0426 15.8305 10.502 15.2929 10.0081C15.0833 9.81517 14.8664 9.63706 14.5821 9.56285C14.1929 9.46637 14.0134 9.57027 13.9909 9.97102C13.976 10.3346 13.976 10.7057 14.0433 11.0693C14.2903 12.4645 14.8739 13.7261 15.5698 14.9432L15.5708 14.9451C15.6303 15.0559 15.6976 15.1811 15.8242 15.2697C15.843 15.2282 15.8705 15.1909 15.8977 15.154C15.9678 15.0588 16.0356 14.9668 15.9439 14.817C15.5656 14.2102 15.3197 13.5459 15.0739 12.8822L15.0739 12.8822L15.0739 12.8822L15.0739 12.8822L15.0739 12.8822L15.0739 12.8822C14.9891 12.653 14.9043 12.424 14.8141 12.1974C14.7168 11.945 14.6943 11.6705 14.7242 11.4033C14.7616 10.9877 15.0609 10.8541 15.3977 11.0916C15.5098 11.1732 15.6146 11.2623 15.6969 11.3662L15.7598 11.4439C16.1352 11.9072 16.5075 12.3666 16.8193 12.8727C16.89 12.9968 16.9687 13.1171 17.0466 13.2362C17.0758 13.2809 17.105 13.3254 17.1335 13.3699C17.1859 13.4441 17.2308 13.5035 17.343 13.4664C17.4479 13.4293 17.5376 13.4589 17.5824 13.5703C17.6254 13.6768 17.5519 13.7494 17.4865 13.814L17.4777 13.8226C16.9315 14.3495 16.5499 14.9951 16.2507 15.6779C15.9439 16.3829 15.8017 17.125 15.7119 17.8819C15.6969 18.0452 15.7343 18.1268 15.9139 18.1491C16.0813 18.1675 16.2538 18.2064 16.423 18.2445C16.458 18.2524 16.4929 18.2602 16.5275 18.2679C16.9616 18.3612 17.3995 18.4619 17.8358 18.5622C18.0237 18.6053 18.2112 18.6484 18.3981 18.6909C18.5028 18.7131 18.6001 18.7503 18.5851 18.8764C18.5701 19.01 18.458 19.0248 18.3607 19.0026C18.1869 18.9643 18.146 19.0687 18.1047 19.1741C18.0979 19.1913 18.0912 19.2085 18.0838 19.2252C17.9192 19.5889 17.6723 19.856 17.2608 19.945C16.7594 20.0564 16.2881 20.0341 15.8466 19.6482C15.8316 20.1603 15.7867 20.6204 15.7045 21.0731C15.6819 21.1992 15.7045 21.3402 15.7269 21.4738C15.8242 22.0823 15.839 22.6909 15.7119 23.2994C15.5622 24.0193 15.4725 24.754 15.5548 25.4887C15.6445 26.2679 15.5698 27.0249 15.4425 27.7892C15.3827 28.1454 15.3527 28.4942 15.3827 28.8504C15.428 29.4298 15.4598 30.0126 15.4369 30.5965C16.1958 31.3064 17.0447 31.9036 17.8967 32.503L17.9863 32.5661C18.6747 33.0559 19.4154 33.4343 20.1637 33.8128C20.3133 33.887 20.4331 33.8945 20.5976 33.798C20.8894 33.6273 21.2187 33.5382 21.5479 33.7015C21.7274 33.7906 21.8621 33.8054 21.9819 33.6273C22.0008 33.6038 22.0287 33.5862 22.0562 33.569L22.0562 33.569C22.0721 33.559 22.0878 33.5491 22.1016 33.5382C23.3811 32.5735 24.6306 31.5865 25.738 30.414C25.9625 30.1764 26.0448 29.9612 26.0074 29.6421C25.9101 28.7664 25.8802 27.8908 25.8952 27.015H25.9156ZM20.9716 19.3575C21.1587 19.1348 21.3981 19.0383 21.6825 19.0458C22.1314 19.0532 22.4606 19.3426 22.498 19.7879C22.513 20.0031 22.5279 20.2332 22.4456 20.441C22.3708 20.6265 22.3933 20.7304 22.5729 20.864C22.9395 21.1534 23.1265 21.5393 23.0966 22.0217C23.0816 22.2146 23.0368 22.4001 22.9021 22.5263C22.7225 22.6896 22.6252 22.9048 22.5355 23.1052C22.3259 23.5578 21.9443 23.7583 21.4954 23.8324C20.994 23.9067 20.5152 23.7805 20.0887 23.5059C19.8642 23.3649 19.7071 23.1571 19.6323 22.9048C19.5949 22.7786 19.5425 22.697 19.4303 22.6228C19.0038 22.3334 18.8916 21.851 19.1459 21.4057C19.2282 21.2573 19.3255 21.1014 19.4527 20.9975C19.6473 20.8491 19.6623 20.7007 19.5949 20.493C19.505 20.2109 19.565 19.9363 19.6623 19.6691C19.8568 19.1275 20.3057 18.9716 20.8071 19.261C20.8306 19.2727 20.8563 19.2885 20.8851 19.3063L20.8851 19.3063L20.8852 19.3063C20.9111 19.3223 20.9397 19.3399 20.9716 19.3575Z" fill="#F3F3F3"/>
<path d="M32.8535 29.9217C33.6241 29.521 34.3948 29.1128 35.2104 28.7863L36.1663 26.6769L37.313 21.9663C34.7989 22.8642 32.2998 23.8067 29.8979 24.9867C28.7756 25.5358 27.713 26.1593 26.7778 26.9979C26.501 27.2427 26.3812 27.4801 26.4485 27.8512C26.5084 28.1556 26.471 28.482 26.486 28.8011C26.4934 28.9199 26.5084 29.0461 26.5158 29.1647C26.5234 29.3132 26.5832 29.3726 26.7478 29.3503C26.9947 29.3206 27.2341 29.38 27.4736 29.4542C27.728 29.5285 27.8926 29.6916 27.9824 29.944C28.0573 30.1444 28.0647 30.3522 28.0498 30.56C28.0423 30.7009 28.0647 30.7901 28.1994 30.8568C28.5586 31.0275 28.8354 31.2872 28.9627 31.6657C29.0075 31.8067 29.0973 31.8216 29.217 31.7845C29.5761 31.6583 29.9503 31.5693 30.2795 31.3689C31.125 30.8642 31.978 30.3744 32.8535 29.9217Z" fill="#F3F3F3"/>
<path d="M14.1929 32.8722C14.3127 32.9241 14.395 32.9539 14.4698 32.9835C14.6045 33.0354 14.7467 33.0429 14.8365 32.9093C14.9338 32.7683 14.8439 32.657 14.7392 32.5605C14.6194 32.4566 14.4997 32.3527 14.38 32.2414C13.8937 31.7962 14.1032 30.9872 14.5596 30.7052C14.6718 30.6385 14.7541 30.6087 14.8439 30.7201C14.8664 30.7498 14.8963 30.772 14.9188 30.8017C15.8616 31.8555 17.0438 32.6199 18.226 33.3694C18.7647 33.7108 19.3184 34.0373 19.917 34.2748C20.0667 34.3342 20.134 34.4084 20.1041 34.5716C20.0741 34.7052 20.0816 34.8388 20.134 34.9723C20.1864 35.1134 20.1115 35.1505 19.9918 35.1579C19.7973 35.1801 19.6028 35.2099 19.4007 35.2099C18.6525 35.2247 17.9042 35.3806 17.156 35.3138C16.3928 35.2395 15.6521 35.0762 14.9562 34.7349C14.7092 34.6161 14.4923 34.4603 14.3276 34.2377C14.0059 33.8221 13.9984 33.3769 14.1929 32.8722Z" fill="#F3F3F3"/>
<path d="M22.7957 34.7408C22.6835 34.7259 22.5338 34.8446 22.4291 34.7481C22.3543 34.6739 22.3468 34.5255 22.3018 34.4142C22.287 34.3697 22.2644 34.3177 22.2346 34.2806C22.1297 34.1545 22.2046 34.0877 22.3094 34.0208C22.9603 33.6201 23.5365 33.1229 24.1575 32.6777C24.9132 32.121 25.5791 31.468 26.2077 30.7778C26.4097 30.5626 26.5593 30.3029 26.5444 29.9912C26.5369 29.865 26.5968 29.8131 26.724 29.8279C26.8437 29.8428 26.9708 29.8576 27.0905 29.8873C27.4647 29.9763 27.6218 30.288 27.4572 30.6368C27.3899 30.7778 27.3001 30.9114 27.2252 31.0524C27.1729 31.1563 27.1505 31.2602 27.2552 31.3493C27.3525 31.4308 27.4572 31.4161 27.562 31.3641C27.5694 31.3567 27.5844 31.3567 27.5919 31.3493C27.6817 31.3047 27.7341 31.1637 27.8238 31.1934C27.9585 31.2379 28.0858 31.327 28.198 31.4161C28.4674 31.6313 28.5647 31.8836 28.4674 32.1508C28.3551 32.4476 28.1755 32.7147 27.9361 32.9374C27.4647 33.3752 26.9036 33.6498 26.3124 33.8576C25.3247 34.199 24.337 34.533 23.2971 34.7036C23.1399 34.7259 22.9753 34.7408 22.7957 34.7408Z" fill="#F3F3F3"/>
<path d="M21.1898 35.1365C21.1524 35.1291 21.0851 35.1291 21.0253 35.1217C20.7633 35.0846 20.6062 34.9585 20.5763 34.758C20.5464 34.5576 20.711 34.2905 20.928 34.2089C21.3321 34.0456 21.7061 34.1644 21.8782 34.5057C21.9905 34.7209 21.9605 34.8323 21.7734 34.9807C21.6313 35.0845 21.4293 35.1439 21.1898 35.1365Z" fill="#F3F3F3"/>
<path d="M16.5955 19.0791C16.4234 19.0866 16.3037 18.9901 16.3037 18.8342C16.2962 18.671 16.386 18.5671 16.5282 18.5671C16.7003 18.5596 16.8125 18.6561 16.82 18.8194C16.82 18.9827 16.7527 19.0717 16.5955 19.0791Z" fill="#F3F3F3"/>
<path d="M24.5034 18.8443C24.4661 18.9631 24.4435 19.0893 24.3014 19.1189C24.1667 19.1486 24.0396 19.0225 24.0396 18.8814C24.047 18.733 24.1368 18.6588 24.2714 18.6514C24.3912 18.644 24.481 18.7182 24.5034 18.8443Z" fill="#F3F3F3"/>
<path fill-rule="evenodd" clip-rule="evenodd" d="M22.1075 22.5296C21.8232 22.5073 21.5538 22.3367 21.3518 22.0472C21.2096 21.8394 21.1385 21.7355 21.0702 21.7374C21.002 21.7392 20.9365 21.8468 20.8055 22.0621C20.6035 22.3886 20.2967 22.5519 19.9077 22.5296C19.3913 22.4925 19.1445 22.0027 19.4288 21.5648C19.5336 21.4015 19.6832 21.268 19.8404 21.1492C20.0872 20.9638 20.1022 20.9266 19.9975 20.6223C19.9301 20.422 19.8702 20.2291 19.8852 20.0138C19.9226 19.5463 20.2893 19.3533 20.6934 19.576C20.7311 19.5968 20.7641 19.6223 20.7965 19.6472C20.8218 19.6667 20.8466 19.6859 20.8729 19.7022C21.0226 19.7912 21.1497 19.7986 21.2395 19.6205C21.3518 19.4053 21.5463 19.3978 21.7483 19.4201C21.9728 19.4424 22.1 19.576 22.1824 19.7763C22.2272 19.8876 22.2197 19.9915 22.1748 20.0954C22.1448 20.17 22.1128 20.2427 22.0809 20.3153L22.0809 20.3154C22.0492 20.3874 22.0176 20.4594 21.9877 20.5333C21.8456 20.8376 21.8606 20.9044 22.1748 21.0379C22.4367 21.1492 22.6387 21.3125 22.751 21.5797C22.953 22.0398 22.6687 22.5147 22.1075 22.5296ZM20.4429 20.0262C20.4511 20.0316 20.4642 20.0361 20.4788 20.041C20.504 20.0495 20.5333 20.0594 20.5476 20.0782C20.6448 20.2044 20.7271 20.3454 20.7421 20.5086C20.7496 20.5828 20.7122 20.6496 20.6298 20.6794C20.5626 20.7016 20.5101 20.6719 20.4653 20.6274C20.3456 20.5012 20.2558 20.3528 20.2782 20.1672C20.2857 20.0931 20.3306 20.0411 20.4429 20.0262ZM21.352 20.2915C21.3447 20.3131 21.3383 20.3324 21.3324 20.3481C21.3099 20.4742 21.3099 20.5708 21.4146 20.6004C21.5343 20.6449 21.6017 20.5708 21.6391 20.4742C21.6766 20.3703 21.714 20.2664 21.7364 20.1625C21.7514 20.0884 21.7214 20.0216 21.6466 19.9845C21.5419 19.94 21.4745 19.9993 21.4371 20.0809C21.3986 20.152 21.3722 20.231 21.352 20.2915Z" fill="#F3F3F3"/>
<path d="M19.9917 22.8642C20.5304 22.8049 20.5603 22.79 21.1215 22.2556C21.4208 22.6416 21.7949 22.879 22.3037 22.8419C22.1541 23.2872 21.8249 23.5098 21.3235 23.5247C20.7698 23.5321 20.1263 23.3911 19.9917 22.8642Z" fill="#F3F3F3"/>
</svg>

<svg xmlns="http://www.w3.org/2000/svg" width="42" height="42" fill="none"><circle cx="21" cy="21" r="21" fill="#31C77F"/><path stroke="#F3F3F3" stroke-width="1.21" d="M37.333 20.885c0 8.957-7.313 16.218-16.333 16.218S4.666 29.843 4.666 20.885C4.666 11.928 11.98 4.667 21 4.667c9.02 0 16.333 7.261 16.333 16.218Z"/><path fill="#F3F3F3" fill-rule="evenodd" d="m17.5 37.102-3.439-1.138c.129-.307.285-.68.39-.924l.22.153c.218.119.532.238.696.282.696.186 1.4.304 2.118.334.248.011.5-.015.751-.042l.244-.025.332-.03c.527-.048 1.057-.097 1.576-.17.154-.024.3-.005.446.014.081.01.162.02.242.023l.064.003c.182.008.365.016.513-.077.286-.172.601-.197.91-.22l.115-.01a10.428 10.428 0 0 0 2.237-.468l.138-.043c.694-.215 1.387-.43 2.054-.736.19-.087.375-.181.549-.286.19.425.568 1.25.899 1.832l-1.722.95-4.667.81-4.666-.232Zm8.416-10.087c-.06-.43-.08-.867-.028-1.304a7.423 7.423 0 0 0-.105-2.3c-.142-.69-.172-1.38-.03-2.078a.958.958 0 0 0 .008-.327 7.713 7.713 0 0 1-.135-1.655c-.052-.03-.06-.014-.075.015-.284.46-.74.542-1.227.468-.486-.067-.793-.371-.905-.846-.03-.118-.082-.148-.17-.2h-.002c-.135-.082-.12-.208.022-.275a.553.553 0 0 1 .134-.042l.046-.01 1.024-.269 1.01-.265c.278-.075.278-.075.248-.342a8.297 8.297 0 0 0-.344-1.536c-.262-.787-.689-1.484-1.22-2.122-.034-.043-.076-.08-.117-.119a.67.67 0 0 1-.175-.208c-.058-.13.02-.201.098-.272.042-.037.083-.075.104-.121.271-.575.705-1.028 1.137-1.481.093-.098.186-.195.277-.293.15-.163.322-.312.487-.453.134-.111.284-.193.471-.104.195.097.232.268.24.46.007.312-.075.609-.172.899-.217.624-.526 1.194-.838 1.77l-.098.181-.005.01c-.13.242-.197.369-.192.492.004.135.093.266.278.54l.009.012c.05-.083.1-.156.148-.227.06-.089.116-.172.166-.263.404-.742.786-1.499 1.063-2.3.277-.802.486-1.618.434-2.479-.03-.453-.217-.586-.659-.445-.27.081-.471.26-.673.445-.644.597-1.218 1.257-1.791 1.917-.24.275-.479.55-.723.821a.583.583 0 0 0-.15.253c-.09.341-.202.386-.509.2l-.03-.017a1.514 1.514 0 0 0-.404-.183c-1.01-.208-2.02-.282-3.045-.097-.374.06-.726.134-1.04.35a.573.573 0 0 1-.135.066c-.187.074-.329.015-.344-.186-.015-.178-.112-.29-.217-.408-.165-.193-.337-.386-.509-.579a65.016 65.016 0 0 1-.465-.523c-.48-.542-.957-1.083-1.495-1.577-.21-.193-.427-.37-.71-.445-.39-.097-.57.007-.592.408-.015.364-.015.735.052 1.098.247 1.395.83 2.657 1.527 3.874v.002c.06.11.128.236.254.325.019-.042.046-.08.074-.116.07-.095.138-.187.046-.337-.378-.607-.624-1.271-.87-1.935-.085-.229-.17-.458-.26-.685a1.686 1.686 0 0 1-.09-.794c.038-.415.337-.549.674-.311.112.081.217.17.299.274l.063.078c.375.463.748.923 1.06 1.429.07.124.149.244.227.363l.087.134c.052.074.097.134.209.096.105-.037.195-.007.24.104.042.107-.031.18-.096.244l-.01.009c-.546.527-.927 1.172-1.226 1.855-.307.705-.45 1.447-.54 2.204-.014.163.023.245.203.267.167.018.34.057.509.095l.105.024c.434.093.872.194 1.308.294l.562.129c.105.022.202.06.187.185-.015.134-.127.149-.224.127-.174-.039-.215.066-.256.171l-.021.051c-.165.364-.412.631-.823.72-.502.111-.973.09-1.414-.297a9.4 9.4 0 0 1-.143 1.425c-.022.126 0 .267.023.4.097.61.112 1.218-.015 1.826-.15.72-.24 1.455-.157 2.19.09.779.015 1.536-.112 2.3-.06.356-.09.705-.06 1.061.045.58.077 1.163.054 1.746.759.71 1.608 1.308 2.46 1.907l.09.063c.688.49 1.428.868 2.177 1.247a.4.4 0 0 0 .434-.015c.291-.17.62-.26.95-.096.18.089.314.103.434-.075a.291.291 0 0 1 .074-.058.522.522 0 0 0 .046-.03c1.28-.965 2.529-1.953 3.636-3.125.224-.238.307-.453.27-.772a20.562 20.562 0 0 1-.113-2.627h.02Zm-4.944-7.657a.85.85 0 0 1 .71-.312c.45.007.779.297.816.742.015.215.03.445-.052.653-.075.186-.053.29.127.423.366.29.553.675.524 1.158-.015.193-.06.378-.195.504-.18.164-.277.379-.367.58-.21.452-.59.652-1.04.726-.501.075-.98-.052-1.406-.326a1.053 1.053 0 0 1-.457-.601.457.457 0 0 0-.202-.282c-.426-.29-.538-.772-.284-1.217.082-.149.18-.305.307-.409.194-.148.21-.296.142-.504-.09-.282-.03-.557.067-.824.195-.541.644-.697 1.145-.408.024.012.05.027.078.045l.087.052Z" clip-rule="evenodd"/><path fill="#F3F3F3" d="M32.853 29.922c.771-.401 1.542-.81 2.357-1.136l.956-2.11 1.147-4.71c-2.514.898-5.013 1.84-7.415 3.02-1.122.55-2.185 1.173-3.12 2.012-.277.245-.397.482-.33.853.06.305.023.631.038.95.007.119.022.245.03.364.007.148.067.208.232.185.247-.03.486.03.726.104a.731.731 0 0 1 .508.49c.075.2.083.408.068.616-.008.14.015.23.15.297.359.17.635.43.763.809.044.14.134.156.254.119.36-.127.733-.216 1.063-.416a48.431 48.431 0 0 1 2.573-1.447ZM14.193 32.872c.12.052.202.082.277.111.134.052.277.06.366-.074.098-.14.008-.252-.097-.349-.12-.103-.24-.207-.359-.319-.486-.445-.277-1.254.18-1.536.112-.066.194-.096.284.015.022.03.052.052.075.082.943 1.053 2.125 1.818 3.307 2.567.539.342 1.092.668 1.691.906.15.06.217.133.187.297a.67.67 0 0 0 .03.4c.052.141-.023.178-.142.186-.195.022-.39.052-.591.052-.748.015-1.497.17-2.245.104-.763-.075-1.504-.238-2.2-.58a1.641 1.641 0 0 1-.628-.496c-.322-.416-.33-.861-.135-1.366Z"/><path fill="#F3F3F3" d="M22.796 34.74c-.113-.014-.262.105-.367.008-.075-.074-.082-.222-.127-.334a.449.449 0 0 0-.067-.133c-.105-.127-.03-.193.074-.26.651-.4 1.227-.898 1.848-1.343.756-.557 1.422-1.21 2.05-1.9.203-.215.352-.475.337-.787-.007-.126.053-.178.18-.163.12.015.247.03.366.06.375.088.532.4.367.749-.067.14-.157.274-.232.415-.052.104-.075.208.03.297.098.082.202.067.307.015.007-.007.022-.007.03-.015.09-.044.142-.185.232-.156.134.045.262.134.374.223.27.215.367.468.27.735a2.073 2.073 0 0 1-.532.786c-.471.438-1.032.713-1.624.92-.987.342-1.975.676-3.015.847a3.527 3.527 0 0 1-.501.037ZM21.19 35.136c-.038-.007-.105-.007-.165-.014-.262-.037-.419-.163-.449-.364-.03-.2.135-.468.352-.55.404-.162.778-.044.95.298.113.215.082.326-.105.475a.937.937 0 0 1-.583.155ZM16.596 19.08c-.173.007-.292-.09-.292-.246-.008-.163.082-.267.224-.267.172-.007.285.09.292.252 0 .164-.067.253-.224.26ZM24.503 18.844c-.037.12-.06.245-.202.275-.134.03-.261-.096-.261-.238.007-.148.097-.222.231-.23.12-.007.21.067.232.193Z"/><path fill="#F3F3F3" fill-rule="evenodd" d="M22.108 22.53c-.285-.023-.554-.193-.756-.483-.142-.208-.213-.312-.282-.31-.068.002-.134.11-.265.325a.937.937 0 0 1-.897.468c-.517-.038-.764-.527-.48-.965.106-.164.255-.297.412-.416.247-.185.262-.222.157-.527-.067-.2-.127-.393-.112-.608.038-.468.404-.66.808-.438.038.02.071.046.104.071.025.02.05.039.076.055.15.09.277.097.366-.082.113-.215.307-.222.51-.2.224.022.351.156.433.356a.395.395 0 0 1-.007.32c-.03.074-.062.147-.094.22a7.794 7.794 0 0 0-.093.217c-.142.305-.127.371.187.505.262.111.464.274.576.542.202.46-.082.935-.643.95Zm-1.665-2.504c.008.006.021.01.036.015.025.008.054.018.069.037.097.126.18.267.194.43.008.075-.03.142-.112.171-.067.023-.12-.007-.165-.052-.12-.126-.21-.274-.187-.46.008-.074.053-.126.165-.14Zm.909.265-.02.057c-.022.126-.022.223.083.252.12.045.187-.03.224-.126.038-.104.075-.208.097-.311a.155.155 0 0 0-.09-.178c-.104-.045-.172.014-.209.096-.038.071-.065.15-.085.21Z" clip-rule="evenodd"/><path fill="#F3F3F3" d="M19.992 22.864c.538-.06.568-.074 1.13-.608.299.386.673.623 1.182.586-.15.445-.48.668-.98.683-.554.007-1.198-.134-1.332-.66Z"/></svg>
